X: 6914
T: Cheer Up Old Hag
R: jig
M: 6/8
K: Gmajor
|:BGF ~G3|Bc/d/e dBA|~B3 GA/B/d|eaf g2d|
GA/B/d gfe|feB cBA|BGE EDE|cdc B2B:|
|:BGE EDE|GED D2A|BGE EDE|c2A B2A|
BGE EDE|GED D3 (3D/E/F/|GBA GBA|GED D2A:|

